X:256
T: Xian hua ge
N: C1753
O: China,Shandong Yiexian
S: III, 318]
R: Xiaodiao, Wugeng diao]
M: 2/4
L: 1/16
K: Eb
e2fecBce | B2B4c2 | e2fecBce | B6
cB | G2G4B2 | c2Bce4 | G2B2cBce | B2
BcB2G2 | B2E2F4 | F3GB4 |
c2BcG2F2 | E8

@@@ Tune index: 6811
